X:01
T: Unknown BBC Schools Dance Polka
M: 4/4
L:1/8
C: Unknown
Z: Contributed 2016-12-12 16:50:43 by Brian
K: Dmaj
AG| :FDFG d2 cB|cdef g2fe|fafd efed|c2A2A2 AG|
FDFA d2cB|cdef g2 fe|fafd afec| d2d2d2 fg : |
a2a2 afdf|g2g2 gece|a2a2 afdf |e2A2A2AG|
FDFA d2cB|cdef g2fe|bgec d2d2d2 | AG
